packages/storefront-lwc/src/assets/fonts/flags/4x3/gr.svg

<svg height="480" width="640" xmlns="http://www.w3.org/2000/svg" xmlns:xlink="http://www.w3.org/1999/xlink"><clipPath id="a"><path d="m0 0h120v90h-120z"/></clipPath><g clip-path="url(#a)" fill-rule="evenodd" stroke-width="1pt" transform="scale(5.33)"><path d="m0 0h135v10h-135z" fill="#0d5eaf"/><path d="m0 10h135v10h-135z" fill="#fff"/><path d="m0 20h135v10h-135z" fill="#0d5eaf"/><path d="m0 30h135v10h-135z" fill="#fff"/><path d="m0 40h135v10h-135z" fill="#0d5eaf"/><path d="m0 50h135v10h-135z" fill="#fff"/><path d="m0 60h135v10h-135z" fill="#0d5eaf"/><path d="m0 70h135v10h-135z" fill="#fff"/><path d="m0 80h135v10h-135zm0-80h50v50h-50z" fill="#0d5eaf"/><g fill="#fff"><path d="m20 0h10v50h-10z"/><path d="m0 20h50v10h-50z"/></g></g></svg>

<svg xmlns="http://www.w3.org/2000/svg" height="480" width="640" id="flag-icon-css-gr">
  <defs>
    <clipPath id="a">
      <path fill-opacity=".67" d="M0 0h120v90H0z"/>
    </clipPath>
  </defs>
  <g fill-rule="evenodd" clip-path="url(#a)" transform="scale(5.33)" stroke-width="1pt">
    <path fill="#0d5eaf" d="M0 0h135v10H0z"/>
    <path fill="#fff" d="M0 10h135v10H0z"/>
    <path fill="#0d5eaf" d="M0 20h135v10H0z"/>
    <path fill="#fff" d="M0 30h135v10H0z"/>
    <path fill="#0d5eaf" d="M0 40h135v10H0z"/>
    <path fill="#fff" d="M0 50h135v10H0z"/>
    <path fill="#0d5eaf" d="M0 60h135v10H0z"/>
    <path fill="#fff" d="M0 70h135v10H0z"/>
    <path fill="#0d5eaf" d="M0 80h135v10H0zM0 0h50v50H0z"/>
    <g fill="#fff">
      <path d="M20 0h10v50H20z"/>
      <path d="M0 20h50v10H0z"/>
    </g>
  </g>
</svg>
